X:15807
T:Speed the Plough. JC.076
M:2/4
L:1/16
Q:80
S:John Clare,Poet,Helpston. (1793-1864)
R:Reel
O:England
A:Northamptonshire
Z:P Headford
K:G
.G2GB (de).d.B|(de).d.B (dg).d.B|.c2(cA) B2BG|(AB)(AG) (FA)(AB)|!
.G2GB (de).d.B|(de).d.B (dg).d.B|(cd).c.A (Bc).B.A|E>GF>AG4:|!
g3(f g)(GB).d|(gb)(fa) (eg)(dg)|(ce).c.A (Bd).B.G|(AB)AG (EA)(AB)|!
GB(dg) (gd).B.G|(ec).A.F (dB).G.B|(cd).B.c (AB)(GA)|E>GF>AG4:|]
W:Song text exists,(or not). See Deacon.
